!!!!SEGMENT: pl-kk--kk-i-7--039_maxylewicz-wincenty--alleluia-ave-maria-2dum.krn
!!!cenid: 16xx:838
!!!COM: Maxylewicz, Wincenty
!!!COM-rismID: pe30105799
!!!CDT: ~1685-1745/01/24
!!!CNT: Polish
!!!OTL: Alleluia Ave Maria 2dum
!!!PDT:
!!!AGN: Sacred
!!!YEC: Copyright 2022 Narodowy Instytut Fryderyka Chopina (https://polishscores.org)
!!!YEM: License CC-BY-4.0 (https://creativecommons.org/licenses/by/4.0)
!!!SMS-siglum: PL-Kk
!!!SMS-shelfmark: Kk.I.7
!!!SMS-shelfwork: 039 W
!!!SMS-variant:
!!!SMS-altvar:
!!!NIFC-rismSourceID: 300258077
!!!NIFC-rismChildID: 300258116
!!!NIFC-islandoraID: pl-kk:1956
!!!URL-pdf-islandora: https://repozytorium.nifc.pl/islandora/object/pl-kk%3A1956/datastream/PDF/view
!!!URL-scan: https://polish.musicsources.pl/pl/lokalizacje/galeria/rekopisy/6140 @EN{Scan on Polish Music Sources Website} @PL{Skany w portalu Dziedzictwo Muzyki Polskiej w otwartym dostępie}
!!!IIIF: https://repozytorium.nifc.pl/islandora/object/pl-kk%3A1956/datastream/IIIF/view
!!!ONB-nifc: UWAGA: C (skan 0036, s.66), A (0120, s.61), T(0196, s.57), B(0286, s.59). Następny utwór: Gaude Maria virgo
!!!AIN: 1 alto 1 bass 1 soprn 1 tenor
!!!key:
**kern	**text	**kern	**text	**kern	**text	**kern	**text
*part4	*	*part3	*	*part2	*	*part1	*
*staff4	*	*staff3	*	*staff2	*	*staff1	*
*Ibass	*	*Itenor	*	*Ialto	*	*Isoprn	*
*I"BASSVS.	*	*I"TENOR.	*	*I"ALTVS.	*	*I"CANTVS.	*
*I'B	*	*I'T	*	*I'A	*	*I'S	*
*clefF4	*	*clefC4	*	*clefC3	*	*clefC1	*
*k[b-]	*	*k[b-]	*	*k[b-]	*	*k[b-]	*
*F:	*	*F:	*	*F:	*	*F:	*
*M2/1	*	*M2/1	*	*M2/1	*	*M2/1	*
*met(C|)	*	*met(C|)	*	*met(C|)	*	*met(C|)	*
=1-	=1-	=1-	=1-	=1-	=1-	=1-	=1-
!LO:TX:t=P:problem=w źródle znaki przykluczowe&colon; B- BB-, zapisane jeden nad drugim, w pionie	!	!	!	!	!	!	!
!	!	!	!	!	!	!LO:TX:t=P:problem=w źródle "2dum" zapisne przed pierwszym taktem, na wysokości pięciolinii	!
!LO:TX:a:i:t=Lente	!	!	!	!	!	!LO:TX:a:i:t=2dum	!
*xywh-#286:7215,2746,6432,781	*	*xywh-#196:10606,2265,2973,790	*	*xywh-#120:11076,2306,2789,780	*	*xywh-#36:611,527,6289,904	*
2r	.	2r	.	2r	.	2r	.
*2\right	*	*2\right	*	*2\right	*	*2\right	*
!LO:TX:t=P:problem=kreska pseudotaktowa	!	!LO:TX:t=P:problem=kreska pseudotaktowa	!	!LO:TX:t=P:problem=kreska pseudotaktowa	!	!LO:TX:t=P:problem=kreska pseudotaktowa	!
2F\	Al-	2c\	Al-	2f\	Al-	2a\	Al-
2F\	-le-	2c\	-le-	2f\	-le-	2a\	-le-
!LO:TX:t=P:problem=kreska pseudotaktowa	!	!LO:TX:t=P:problem=kreska pseudotaktowa	!	!	!	!LO:TX:t=P:problem=kreska pseudotaktowa	!
2E\	-lu-	2c\	-lu-	2g\	-lu-	2g/	-lu-
=2-	=2-	=2-	=2-	=2-	=2-	=2-	=2-
!LO:TX:t=P:global:problem=rozdzielacz słów / znak oddechu; w źródle zapisywane na pięciolinii	!	!LO:TX:t=P:global:problem=rozdzielacz słów / znak oddechu; w źródle zapisywane na pięciolinii	!	!LO:TX:t=P:global:problem=rozdzielacz słów / znak oddechu; w źródle zapisywane na pięciolinii	!	!LO:TX:t=P:global:problem=rozdzielacz słów / znak oddechu; w źródle zapisywane na pięciolinii	!
2F,\	-ia	2c,\	-ia	2f,\	-ia	2a,\	-ia
*	*ij	*	*	*	*	*	*ij
!	!	!	!	!LO:TX:t=P:problem=kreska pseudotaktowa	!	!LO:TX:t=P:problem=kreska pseudotaktowa	!
2E\	Al-	2c\	al-	2c/	al-	2g/	Al-
2.D/	-le-	2c\	-le-	2.f\	-le-	2a\	-le-
*	*	*custos:c	*	*	*	*	*
!	!	!LO:TX:t=P:problem=kreska pseudotaktowa	!	!	!	!	!
.	.	2Bn\	-lu-	.	.	2dd\	-lu-
*	*	*	*	*custos:e	*	*	*
!	!	!	!	!LO:TX:t=P:problem=kreska pseudotaktowa	!	!	!
!LO:TX:t=P:problem=kreska pseudotaktowa	!	!	!	!	!	!	!
4D/	-lu-	.	.	4f\	-lu-	.	.
!	!	!LO:TX:t=P:problem=w źródle "2dum" zapisne za pięciolinią, na wysokości pięciolinii	!	!LO:TX:t=P:problem=w źródle "2dum" zapisne za pięciolinią, na wysokości pięciolinii	!	!	!
!	!	!LO:TX:a:i:t=2dum	!	!LO:TX:a:i:t=2dum	!	!	!
!	!	!LO:LB:g=original	!	!LO:LB:g=original	!	!	!
=3-	=3-	=3-	=3-	=3-	=3-	=3-	=3-
*	*	*xywh-#196:7058,2929,6027,673	*	*xywh-#120:7357,2938,6202,684	*	*	*
2C,/	-ia	4c,\	-ia	(>2e\	-ia	2g,/	-ia
*	*Xij	*	*	*	*	*	*Xij
*	*	*	*ij	*	*	*	*
.	.	4c\	al-	.	.	.	.
!LO:TX:t=P:problem=kreska pseudotaktowa	!	!	!	!	!	!LO:TX:t=P:problem=kreska pseudotaktowa	!
2D\	al-	4A/	-le-	2f\)	al-	2dd\	al-
!	!	!LO:TX:t=P:problem=kreska pseudotaktowa	!	!	!	!	!
.	.	4A/	-lu-	.	.	.	.
(>2AA/	-le-	2A,\	-ia	1.f	-le-	2cc\	.
*	*	*	*Xij	*	*	*	*
2BB-/)	.	4d\	al-	.	.	4b-\	-le-
!	!	!LO:TX:t=P:problem=kreska pseudotaktowa	!	!	!	!	!
.	.	4d\	-le-	.	.	4a\	-lu-
=4-	=4-	=4-	=4-	=4-	=4-	=4-	=4-
!LO:TX:t=P:problem=kreska pseudotaktowa	!	!	!	!	!	!LO:TX:t=P:problem=kreska pseudotaktowa	!
1C	-lu-	1c	-lu-	.	.	1g	ia.
!	!	!	!	!LO:TX:t=P:problem=kreska pseudotaktowa	!	!	!
.	.	.	.	2e\	-lu-	.	.
2F,\	-ia	2c,\	-ia	2f,\	-ia	2a,\	.
(>4F\	A-	(<4F/	A-	2c/	A-	(>4a\	A-
!LO:TX:t=P:problem=kreska pseudotaktowa	!	!LO:TX:t=P:problem=kreska pseudotaktowa	!	!	!	!LO:TX:t=P:problem=kreska pseudotaktowa	!
4E\)	.	4G/)	.	.	.	4g\)	.
=5-	=5-	=5-	=5-	=5-	=5-	=5-	=5-
(>4D\	-ve	2A/	-ve	2.d\	-ve	(<4f/	-ve
4E\)	.	.	.	.	.	4g/)	.
!	!	!LO:TX:t=P:problem=kreska pseudotaktowa	!	!	!	!	!
(>4F\	Ma-	2A/	Ma-	.	.	(>4a\	Ma-
!LO:TX:t=P:problem=kreska pseudotaktowa	!	!	!	!LO:TX:t=P:problem=kreska pseudotaktowa	!	!LO:TX:t=P:problem=kreska pseudotaktowa	!
4G\)	.	.	.	4g\	Ma-	4b-\)	.
2A\	-ri-	2A\	-ri-	2f\	-ri-	2cc\	-ri-
!LO:TX:t=P:problem=kreska pseudotaktowa	!	!LO:TX:t=P:problem=kreska pseudotaktowa	!	!	!	!LO:TX:t=P:problem=kreska pseudotaktowa	!
2A\	-a	2A\	-a	2f\	-a	2cc\	-a
=6-	=6-	=6-	=6-	=6-	=6-	=6-	=6-
2B-X\	gra-	2d\	gra-	2f\	gra-	2dd\	gra-
4A\	-ti-	4A/	-ti-	4f\	-ti-	4cc\	-ti-
*	*	*	*	*	*	*custos:b-	*
!	!	!	!	!	!	!LO:TX:t=P:problem=kreska pseudotaktowa	!
!	!	!LO:TX:t=P:problem=kreska pseudotaktowa	!	!LO:TX:t=P:problem=kreska pseudotaktowa	!	!	!
4A\	-a	4A/	-a	4f\	-a	4cc\	-a
!	!	!	!	!	!	!LO:LB:g=original	!
*	*	*	*	*	*	*xywh-#36:1097,1275,5939,797	*
1G	ple-	1B-	ple-	(>2f\	ple-	1b-	ple-
.	.	.	.	2e\)	.	.	.
=7-	=7-	=7-	=7-	=7-	=7-	=7-	=7-
!LO:TX:t=P:problem=kreska pseudotaktowa	!	!LO:TX:t=P:problem=kreska pseudotaktowa	!	!LO:TX:t=P:problem=kreska pseudotaktowa	!	!LO:TX:t=P:problem=kreska pseudotaktowa	!
1F	-na	1F	-na	1f	-na	1a	-na:
!	!	!	!	!LO:TX:t=P:problem=kreska pseudotaktowa	!	!	!
00r	.	0r	.	1rg	.	2dd\	Do-
.	.	.	.	.	.	4g/	-mi-
.	.	.	.	.	.	4g/	-nus
=8-	=8-	=8-	=8-	=8-	=8-	=8-	=8-
!	!	!LO:TX:t=P:problem=kreska pseudotaktowa	!	!	!	!	!
.	.	.	.	2a\	Do-	2cc\	Te-
!	!	!	!	!	!	!LO:TX:t=P:problem=kreska pseudotaktowa	!
.	.	.	.	4d\	-mi-	2f,/	-cum
!	!	!	!	!LO:TX:t=P:problem=kreska pseudotaktowa	!	!	!
.	.	.	.	4d\	-n(us)	.	.
.	.	1r	.	2g\	Te-	4b-\	.
.	.	.	.	.	.	4b-\	Do-
!	!	!	!	!LO:TX:t=P:problem=kreska pseudotaktowa	!	!	!
.	.	.	.	2c/	-cum	4b-\	-mi-
.	.	.	.	.	.	8cc\L	-nus
!	!	!	!	!	!	!LO:TX:t=P:problem=kreska pseudotaktowa	!
.	.	.	.	.	.	8b-\J	.
=9-	=9-	=9-	=9-	=9-	=9-	=9-	=9-
!LO:TX:t=P:problem=kreska pseudotaktowa	!	!	!	!	!	!	!
.	.	2d\	Do-	4f\	be-	4a\	Te-
.	.	.	.	4f\	-ne-	(>8g\L	.
.	.	.	.	.	.	8a\J	.
.	.	4G/	-mi-	4f\	-di-	4b-\)	.
.	.	4G/	-n(us)	8g\L	-cta	8cc\L	.
!	!	!	!	!LO:TX:t=P:problem=kreska pseudotaktowa	!	!LO:TX:t=P:problem=kreska pseudotaktowa	!
.	.	.	.	8f\J	.	8b-\J	.
!	!	!	!	!	!	!LO:TX:t=P:problem=kreska pseudotaktowa	!
2A\	Do-	2c\	Te-	4e,\	tu	1a,	-cum
.	.	.	.	4c\	in	.	.
!	!	!LO:TX:t=P:problem=kreska pseudotaktowa	!	!	!	!	!
4D/	-mi-	2F/	-cum	2.f\	mu-	.	.
*custos:G	*	*	*	*	*	*	*
!LO:TX:t=P:problem=kreska pseudotaktowa	!	!	!	!	!	!	!
4D/	-n(us)	.	.	.	.	.	.
!LO:TX:t=P:problem=w źródle "2dum." zapisne za pięciolinią, na wysokości pięciolinii	!	!	!	!	!	!	!
!LO:TX:a:i:t=2dum.	!	!	!	!	!	!	!
!LO:LB:g=original	!	!	!	!	!	!	!
=10-	=10-	=10-	=10-	=10-	=10-	=10-	=10-
!	!	!	!	!	!	!LO:TX:t=P:problem=kreska pseudotaktowa	!
*xywh-#286:7185,3377,6051,791	*	*	*	*	*	*	*
2G\	Te-	4B-\	be-	.	.	1r	.
.	.	4B-\	-ne-	8g\L	-li-	.	.
.	.	.	.	8f\J	.	.	.
!LO:TX:t=P:problem=kreska pseudotaktowa	!	!	!	!LO:TX:t=P:problem=kreska pseudotaktowa	!	!	!
2C/	-cum	4B-\	-di-	[<2e\	-e-	.	.
.	.	8c\L	-cta	.	.	.	.
!	!	!LO:TX:t=P:problem=kreska pseudotaktowa	!	!	!	!	!
.	.	8B-\J	.	.	.	.	.
!	!	!	!	!LO:N:xstem:cue	!	!	!
4F\	be-	2.A/	Tu	4e\]	.	2a\	Do-
4F\	-ne-	.	.	8f\L	.	.	.
.	.	.	.	8e\J	.	.	.
4F\	-di-	.	.	2.d\	.	4d/	-mi-
8G\L	.	8B-/L	in	.	.	4d/	-n(us)
!LO:TX:t=P:problem=kreska pseudotaktowa	!	!LO:TX:t=P:problem=kreska pseudotaktowa	!	!	!	!	!
8F\J	.	8A/J	.	.	.	.	.
=11-	=11-	=11-	=11-	=11-	=11-	=11-	=11-
4E\	-cta	4G/	mu-	.	.	2g\	Te-
8F\L	.	(<8A/L	-li-	8e\L	.	.	.
8G\J	.	8B-/J)	.	8d\J	.	.	.
!LO:TX:t=P:problem=kreska pseudotaktowa	!	!	!	!	!	!LO:TX:t=P:problem=kreska pseudotaktowa	!
2A\	Tu	4c\	-e-	2.c/	.	2c/	-cum
*	*	*custos:A	*	*	*	*	*
!	!	!LO:TX:t=P:problem=kreska pseudotaktowa	!	!	!	!	!
.	.	4c\	-ri-	.	.	.	.
!	!	!LO:LB:g=original	!	!	!	!	!
*	*	*xywh-#196:7049,3423,6036,817	*	*	*	*	*
4D\	in-	2A/	-bus	.	.	4f/	be-
8E\L	.	.	.	8d/L	.	4f/	-ne-
8F\J	.	.	.	8c/J	.	.	.
*	*	*	*	*custos:c	*	*	*
!	!	!	!	!LO:TX:t=P:problem=kreska pseudotaktowa	!	!	!
!LO:TX:t=P:problem=kreska pseudotaktowa	!	!LO:TX:t=P:problem=kreska pseudotaktowa	!	!	!	!	!
2G\	.	2r	.	2Bn/	-ri-	4f/	-di-
.	.	.	.	.	.	8g/L	-cta
!	!	!	!	!	!	!LO:TX:t=P:problem=kreska pseudotaktowa	!
.	.	.	.	.	.	8f/J	.
!	!	!	!	!LO:LB:g=original	!	!	!
=12-	=12-	=12-	=12-	=12-	=12-	=12-	=12-
!	!	!LO:TX:t=P:problem=kreska pseudotaktowa	!	!	!	!	!
*	*	*	*	*xywh-#120:7330,3455,6536,763	*	*	*
4C/	-mu-	1re	.	2c,/	-bus	4e/	Tu
8D/L	.	.	.	.	.	4c/	in
8E/J	.	.	.	.	.	.	.
*	*	*	*	*	*	*custos:cc	*
!	!	!	!	!	!	!LO:TX:t=P:problem=kreska pseudotaktowa	!
4F\	.	.	.	4a\	be-	2cc\	mu-
!LO:TX:t=P:problem=kreska pseudotaktowa	!	!	!	!LO:TX:t=P:problem=kreska pseudotaktowa	!	!	!
4E\	-li-	.	.	4g\	-ne-	.	.
!	!	!	!	!	!	!LO:LB:g=original	!
*	*	*	*	*	*	*xywh-#36:1126,1956,5919,797	*
2.D/	-e-	2A/	et	4f\	-di-	4cc\	.
.	.	.	.	4f\	-cta	(>8dd\L	-li-
.	.	.	.	.	.	8cc\J)	.
!	!	!	!	!LO:TX:t=P:problem=kreska pseudotaktowa	!	!	!
.	.	4D/	be-	2f\	tu	4bn\	-e-
!LO:TX:t=P:problem=kreska pseudotaktowa	!	!	!	!	!	!LO:TX:t=P:problem=kreska pseudotaktowa	!
4D/	-ri-	4D/	-ne-	.	.	4b\	-ri-
=13-	=13-	=13-	=13-	=13-	=13-	=13-	=13-
2C/	-bus.	2G/	-di-	2e\	in	2cc\	-bus
!LO:TX:t=P:problem=kreska pseudotaktowa	!	!LO:TX:t=P:problem=kreska pseudotaktowa	!	!	!	!LO:TX:t=P:problem=kreska pseudotaktowa	!
2r	.	2C/	-ctus	4e\	mu-	2r	.
.	.	.	.	8f\L	-li-	.	.
!	!	!	!	!LO:TX:t=P:problem=kreska pseudotaktowa	!	!	!
.	.	.	.	8g\J	.	.	.
0r	.	4F/	Fru-	4a\	-e-	2rb	.
.	.	4F/	.	8g\L	.	.	.
.	.	.	.	8a\J	.	.	.
!	!	!	!	!	!	!LO:TX:t=P:problem=kreska pseudotaktowa	!
.	.	4F/	-ct(us)	4d\	.	2dd\	et
.	.	8G/L	.	8e\L	.	.	.
!	!	!LO:TX:t=P:problem=kreska pseudotaktowa	!	!LO:TX:t=P:problem=kreska pseudotaktowa	!	!	!
.	.	8F/J	Ven-	8f\J	.	.	.
=14-	=14-	=14-	=14-	=14-	=14-	=14-	=14-
!LO:TX:t=P:problem=kreska pseudotaktowa	!	!	!	!	!	!	!
.	.	4E/	.	4g\	.	4g/	be-
.	.	8F/L	.	4f\	.	4g/	-ne-
.	.	8G/J	.	.	.	.	.
!	!	!LO:TX:t=P:problem=kreska pseudotaktowa	!	!LO:TX:t=P:problem=kreska pseudotaktowa	!	!LO:TX:t=P:problem=kreska pseudotaktowa	!
.	.	2A\	.	[<2e\	.	2cc\	-di-
2D/	et	4D/	.	4e\]	.	2f,/	-ctus
.	.	8E/L	.	8f\L	.	.	.
.	.	8F/J	.	8e\J	.	.	.
4GG/	be-	4G/	.	4d\	.	4b-X\	Fru-
!LO:TX:t=P:problem=kreska pseudotaktowa	!	!LO:TX:t=P:problem=kreska pseudotaktowa	!	!LO:TX:t=P:problem=kreska pseudotaktowa	!	!LO:TX:t=P:problem=kreska pseudotaktowa	!
4GG/	-ne-	4F/	.	4d\	-ri-	4b-\	-ct(us)
=15-	=15-	=15-	=15-	=15-	=15-	=15-	=15-
2C/	-di-	4E/	.	2c/	-bus	4b-\	Ven-
.	.	8F/L	.	.	.	8cc\L	.
.	.	8G/J	.	.	.	8b-\J	.
!LO:TX:t=P:problem=kreska pseudotaktowa	!	!LO:TX:t=P:problem=kreska pseudotaktowa	!	!LO:TX:t=P:problem=kreska pseudotaktowa	!	!	!
2FF/	-ctus	[<2A/	.	2r	.	4a\	.
.	.	.	.	.	.	8b-\L	.
!	!	!	!	!	!	!LO:TX:t=P:problem=kreska pseudotaktowa	!
.	.	.	.	.	.	8cc\J	.
4BB-X/	Fru-	4A/]	.	2d\	et	2.dd\	.
4BB-/	-ct(us)	8G/L	.	.	.	.	.
.	.	8F/J	.	.	.	.	.
!	!	!LO:TX:t=P:problem=kreska pseudotaktowa	!	!	!	!	!
4BB-/	Ven-	[<2G/	.	4G/	be-	.	.
8C/L	.	.	.	4G/	-ne-	8ee-X\L	.
!LO:TX:t=P:problem=kreska pseudotaktowa	!	!	!	!	!	!LO:TX:t=P:problem=kreska pseudotaktowa	!
8BB-/J	.	.	.	.	.	8dd\J	.
=16-	=16-	=16-	=16-	=16-	=16-	=16-	=16-
2.AA/	.	4G/]	.	2c/	-di-	4cc\	tris
.	.	8F/L	.	.	.	4f,/	.
.	.	8E/J	.	.	.	.	.
!	!	!	!	!LO:TX:t=P:problem=kreska pseudotaktowa	!	!LO:TX:t=P:problem=kreska pseudotaktowa	!
.	.	4F/	.	2F/	-ct(us)	[<2ff\	Ven-
!LO:TX:t=P:problem=kreska pseudotaktowa	!	!LO:TX:t=P:problem=kreska pseudotaktowa	!	!	!	!	!
4BB-/	-tris	4G/	.	.	.	.	.
1C	tu-	4A\	.	4c/	Fru-	4ff\]	.
.	.	4B-\	-tris	4c/	-ct(us)	8een\L	-tris
.	.	.	.	.	.	8dd\J	.
!	!	!	!	!	!	!LO:TX:t=P:problem=kreska pseudotaktowa	!
.	.	2G/	Tu-	4B-X/	Ven-	2een\	Tu-
!	!	!	!	!LO:TX:t=P:problem=kreska pseudotaktowa	!	!	!
.	.	.	.	4B-/	-tris	.	.
=17-	=17-	=17-	=17-	=17-	=17-	=17-	=17-
2F,\	-i	2F/	-i,	4A/	tu-	2ff\	-i
.	.	.	.	4A,/	-i	.	.
*	*	*	*	*	*	*custos:b	*
!	!	!	!	!	!	!LO:TX:t=P:problem=kreska pseudotaktowa	!
!	!	!LO:TX:t=P:problem=kreska pseudotaktowa	!	!	!	!	!
4D\	.	2rF	.	2.a\	Ven-	2rb	.
8E\L	be-	.	.	.	.	.	.
*custos:G	*	*	*	*	*	*	*
!LO:TX:t=P:problem=kreska pseudotaktowa	!	!	!	!	!	!	!
8F\J	-ne-	.	.	.	.	.	.
!LO:LB:g=original	!	!	!	!	!	!LO:LB:g=original	!
*xywh-#286:7175,3989,6101,841	*	*	*	*	*	*xywh-#36:1116,2617,5890,855	*
4G\	-di-	2d\	et	.	.	2b-\	Fru-
4F\	-ct(us)	.	.	8g\L	.	.	.
.	.	.	.	8f\J	.	.	.
!	!	!	!	!LO:TX:t=P:problem=kreska pseudotaktowa	!	!LO:TX:t=P:problem=kreska pseudotaktowa	!
(>4E\	Fru-	4G/	be-	[<2g\	.	2cc\	-ct(us)
8F\L	.	4G/	-ne-	.	.	.	.
!LO:TX:t=P:problem=kreska pseudotaktowa	!	!	!	!	!	!	!
8G\J)	.	.	.	.	.	.	.
=18-	=18-	=18-	=18-	=18-	=18-	=18-	=18-
!	!	!	!	!LO:N:xstem:cue	!	!	!
4A\	.	2c\	-di-	4g\]	.	4a\	Ven-
4G,\	-ct(us)	.	.	8f\L	.	8b-\L	.
.	.	.	.	8e\J	.	8cc\J	.
*	*	*custos:d	*	*	*	*	*
!	!	!LO:TX:t=P:problem=kreska pseudotaktowa	!	!	!	!	!
!	!	!	!	!	!	!LO:TX:t=P:problem=kreska pseudotaktowa	!
4F\	Ven-	2A/	-ctus	2.f\	.	[<2dd\	.
8G\L	.	.	.	.	.	.	.
!LO:TX:t=P:problem=kreska pseudotaktowa	!	!	!	!	!	!	!
8A\J	.	.	.	.	.	.	.
!	!	!LO:LB:g=original	!	!	!	!	!
*	*	*xywh-#196:7103,3980,5910,898	*	*	*	*	*
4B-\	.	4d\	Fru-	.	.	4dd\]	.
4G\	-tris	4d\	-ct(us)	4g\	-tris	8ee\L	-tris
.	.	.	.	.	.	8dd\J	.
!	!	!	!	!LO:TX:t=P:problem=kreska pseudotaktowa	!	!LO:TX:t=P:problem=kreska pseudotaktowa	!
2A\	Tu-	4en\	Ven-	2e\	tu-	2cc#X\	Tu-
!	!	!LO:TX:t=P:problem=kreska pseudotaktowa	!	!	!	!	!
.	.	4e\	.	.	.	.	.
=19-	=19-	=19-	=19-	=19-	=19-	=19-	=19-
2D/	-i.	4f\	-tris	2d\	-i	2dd\	-i
.	.	4f,\	tu-	.	.	.	.
!LO:TX:t=P:problem=kreska pseudotaktowa	!	!	!	!LO:TX:t=P:problem=kreska pseudotaktowa	!	!LO:TX:t=P:problem=kreska pseudotaktowa	!
2r	.	4A\	-i	2r	.	2rb	.
.	.	8B-\L	.	.	.	.	.
!	!	!LO:TX:t=P:problem=kreska pseudotaktowa	!	!	!	!	!
.	.	8c\J	Ven-	.	.	.	.
!LO:TX:t=P:problem=kreska pseudotaktowa	!	!	!	!	!	!LO:TX:t=P:problem=kreska pseudotaktowa	!
1rA	.	2d\	.	4d\	Fru-	1rdd	.
.	.	.	.	8e\L	.	.	.
.	.	.	.	8f\J	.	.	.
.	.	4G/	.	2g\	-ct(us)	.	.
.	.	8A/L	.	.	.	.	.
!	!	!LO:TX:t=P:problem=kreska pseudotaktowa	!	!	!	!	!
.	.	8B-/J	.	.	.	.	.
=20-	=20-	=20-	=20-	=20-	=20-	=20-	=20-
2A\	et	2c\	.	4c\	Ven-	2r	.
.	.	.	.	(>8d\L	.	.	.
.	.	.	.	8e\J)	.	.	.
!	!	!	!	!	!	!LO:TX:t=P:problem=kreska pseudotaktowa	!
4D/	be-	4F/	.	2f\	.	2a\	et
4D/	-ne-	8G/L	.	.	.	.	.
!	!	!LO:TX:t=P:problem=kreska pseudotaktowa	!	!	!	!	!
.	.	8A/J	.	.	.	.	.
2G\	-di-	2.B-\	.	2d\	-tris	4d/	be-
.	.	.	.	.	.	4d/	-ne-
!LO:TX:t=P:problem=kreska pseudotaktowa	!	!	!	!LO:TX:t=P:problem=kreska pseudotaktowa	!	!LO:TX:t=P:problem=kreska pseudotaktowa	!
*	*	*	*	*	*	*	*
2C/	-ct(us)	.	.	2r	.	2g\	-di-
.	.	(>8c\L	tris	.	.	.	.
!	!	!LO:TX:t=P:problem=kreska pseudotaktowa	!	!	!	!	!
.	.	8B-\J)	.	.	.	.	.
!	!	!	!	!LO:LB:g=original	!	!	!
=21-	=21-	=21-	=21-	=21-	=21-	=21-	=21-
*	*	*	*	*xywh-#120:7339,4026,4465,772	*	*	*
4F\	Fru-	2.A/	Tu-	2a\	et	2cc,\	-ctus
4F\	.	.	.	.	.	.	.
4F\	-ct(us)	.	.	4d/	be-	4dd\	Fru-
!	!	!	!	!	!	!LO:TX:t=P:problem=kreska pseudotaktowa	!
8G\L	.	8B-/L	.	4d/	-ne-	4dd\	-ct(us)
!LO:TX:t=P:problem=kreska pseudotaktowa	!	!LO:TX:t=P:problem=kreska pseudotaktowa	!	!	!	!	!
8F\J	.	8A/J	.	.	.	.	.
4E\	Ven-	2G/	-i.	2g\	-di-	4dd\	Ven-
8F\L	.	.	.	.	.	8ee-X\L	.
8G\J	.	.	.	.	.	8dd\J	.
!	!	!LO:TX:t=P:problem=kreska pseudotaktowa	!	!LO:TX:t=P:problem=kreska pseudotaktowa	!	!	!
2A\	.	2rF	.	2c/	-ct(us)	2.cc\	.
=22-	=22-	=22-	=22-	=22-	=22-	=22-	=22-
4D/	.	4d\	Fru-	4f\	Fru-	.	.
8E/L	.	4d\	-ct(us)	4f\	-ct(us)	8b-\L	.
8F/J	.	.	.	.	.	8a\J	.
!LO:TX:t=P:problem=kreska pseudotaktowa	!	!	!	!	!	!LO:TX:t=P:problem=kreska pseudotaktowa	!
2G\	.	4d\	Ven-	4f\	.	2b-\	.
!	!	!LO:TX:t=P:problem=kreska pseudotaktowa	!	!	!	!	!
.	.	4d\	-tris	8g\L	Ven-	.	.
!	!	!	!	!LO:TX:t=P:problem=kreska pseudotaktowa	!	!	!
.	.	.	.	8f\J	.	.	.
4C/	tris	1c	Tu-	4e\	.	4g\	-tris
4F\	.	.	.	4f\	-tris	4a\	.
*	*	*	*	*	*	*custos:a	*
!	!	!	!	!	!	!LO:TX:t=P:problem=kreska pseudotaktowa	!
!LO:TX:t=P:problem=kreska pseudotaktowa	!	!	!	!LO:TX:t=P:problem=kreska pseudotaktowa	!	!	!
2C/	tu-	.	.	2e\	Tu-	2g\	Tu-
!	!	!	!	!	!	!LO:LB:g=original	!
=23-	=23-	=23-	=23-	=23-	=23-	=23-	=23-
*	*	*	*	*	*	*xywh-#36:1077,3355,4014,894	*
2F,\	-i	2c,\	-i	2f,\	-i	2a,\	-i.
4F\	al-	4c\	al-	4f\	al-	4a\	al-
!LO:TX:t=P:problem=kreska pseudotaktowa	!	!LO:TX:t=P:problem=kreska pseudotaktowa	!	!LO:TX:t=P:problem=kreska pseudotaktowa	!	!LO:TX:t=P:problem=kreska pseudotaktowa	!
4F\	-le-	4c\	-le-	4f\	-le-	4a\	-le-
4C/	-lu-	4c\	-lu-	4e\	-lu-	4g/	-lu-
4C,/	-ia	4c\	-ia	4e,\	-ia	4g,/	-ia
*	*ij	*	*ij	*	*ij	*	*ij
4C/	al-	4c\	al-	4e\	al-	4g/	al-
!	!	!	!	!LO:TX:t=P:problem=kreska pseudotaktowa	!	!LO:TX:t=P:problem=kreska pseudotaktowa	!
4C/	-le-	4G/	-le-	4e\	-le-	4cc\	-le-
=24-	=24-	=24-	=24-	=24-	=24-	=24-	=24-
2D/	-lu-	2d\	-lu-	2f\	-lu-	2a\	-lu-
!LO:TX:t=P:problem=kreska pseudotaktowa	!	!LO:TX:t=P:problem=kreska pseudotaktowa	!	!LO:TX:t=P:problem=kreska pseudotaktowa	!	!LO:TX:t=P:problem=kreska pseudotaktowa	!
2BB-,/	-ia	2d\	-ia	2f,\	-ia	2b-,\	-ia
*	*Xij	*	*Xij	*	*Xij	*	*Xij
2C/	al-	2c\	al-	2e\	al-	2g/	al-
2C/	-le-	2c\	-le-	2e\	-le-	2g/	-le-
=25-	=25-	=25-	=25-	=25-	=25-	=25-	=25-
2F\	-lu-	1c	-lu-	2f\	-lu-	2a\	-lu-
2C/	.	.	.	2e\	.	2g/	.
0FF;>	-ia.	0c;>	-ia.	0f;>	-ia.	0a;>	-ia.
==	==	==	==	==	==	==	==
*-	*-	*-	*-	*-	*-	*-	*-
!!!system-decoration: [(s1,s2,s3,s4)]
!!!RDF**kern: > = above
!!!RDF**kern: < = below
!!!EED: Antoni Szymański
!!!EEV: 2021-03-13
!!!ENC: Andrzej Kubiczek
!!!END: 2021-02-25
!!!ENC-iiif: Konrad Tyszka
!!!END-iiif: 2022-09-01
